brandFactory_export/2.Regular/Perfume _2Regular.svg

<?xml version="1.0" encoding="UTF-8"?>
<svg width="24px" height="24px" viewBox="0 0 24 24" version="1.1" xmlns="http://www.w3.org/2000/svg" xmlns:xlink="http://www.w3.org/1999/xlink">
    <title>2.Regular/Perfume _2Regular</title>
    <g id="Symbols" stroke="none" stroke-width="1" fill="none" fill-rule="evenodd">
        <g id="2.Regular/Perfume-_2Regular" fill="#5CB615" fill-rule="nonzero">
            <path d="M17.2067227,22.1781513 C17.3512605,22.1781513 17.4689076,22.0605042 17.4689076,21.912605 C17.4689076,21.7647059 17.3512605,21.6470588 17.2067227,21.6470588 L6.55462185,21.6470588 C6.41008403,21.6470588 6.28907563,21.7680672 6.28907563,21.912605 C6.28907563,22.0571429 6.40672269,22.1781513 6.55462185,22.1781513 L17.2067227,22.1781513 Z M3.45882353,14.1109244 C3.45882353,16.8571429 4.63865546,18.9613445 6.87058824,20.205042 L16.9546218,20.205042 C19.1193277,18.9882353 20.2689076,16.887395 20.2689076,14.1109244 C20.2689076,9.12941176 16.2689076,7.58991597 14.5445378,7.15630252 L14.5411765,7.15630252 C13.6806723,6.94453782 12.7798319,6.83361345 11.8588235,6.83361345 C10.8571429,6.83361345 9.83529412,6.97478992 8.86386555,7.2605042 C8.85378151,7.26386555 8.84369748,7.26386555 8.83361345,7.26722689 C5.90588235,8.14453782 3.45882353,10.3630252 3.45882353,14.1109244 L3.45882353,14.1109244 Z M9.30084034,2.52773109 L9.30084034,5.66386555 C10.1445378,5.48235294 11.005042,5.39159664 11.8588235,5.39159664 C12.5915966,5.39159664 13.307563,5.47563025 14.010084,5.59663866 L14.010084,2.52773109 C14.010084,1.92941176 13.5260504,1.44537815 12.9310924,1.44537815 L10.3764706,1.44537815 C9.78487395,1.44537815 9.30084034,1.92941176 9.30084034,2.52773109 L9.30084034,2.52773109 Z M21.7042017,14.1109244 C21.7042017,17.0420168 20.6184874,19.3613445 18.5546218,20.887395 C18.7731092,21.1731092 18.907563,21.5294118 18.907563,21.9159664 C18.907563,22.8571429 18.1445378,23.6235294 17.2067227,23.6235294 L6.55462185,23.6235294 C5.61680672,23.6235294 4.85042017,22.8571429 4.85042017,21.9159664 C4.85042017,21.5159664 4.99495798,21.1529412 5.22352941,20.8605042 C3.14621849,19.3142857 2.01680672,16.9613445 2.01680672,14.1109244 C2.01680672,9.82184874 4.63529412,7.21344538 7.86218487,6.07058824 L7.86218487,2.52773109 C7.86218487,1.13277311 8.99159664,0 10.3764706,0 L12.9310924,0 C14.3193277,0 15.4453782,1.13277311 15.4453782,2.52773109 L15.4453782,5.91596639 C19.3781513,7.1092437 21.7042017,10.1310924 21.7042017,14.1109244 Z M8.16806723,12.5109244 L8.16806723,15.9260504 C8.16806723,16.4 8.5512605,16.7865546 9.02521008,16.7865546 L14.4033613,16.7865546 C14.8773109,16.7865546 15.2605042,16.4 15.2605042,15.9260504 L15.2605042,12.5109244 C15.2605042,12.0369748 14.8773109,11.6504202 14.4033613,11.6504202 L9.02521008,11.6504202 C8.5512605,11.6504202 8.16806723,12.0369748 8.16806723,12.5109244 L8.16806723,12.5109244 Z M9.02521008,18.2285714 C7.75798319,18.2285714 6.72941176,17.1966387 6.72941176,15.9260504 L6.72941176,12.5109244 C6.72941176,11.2403361 7.75798319,10.205042 9.02521008,10.205042 L14.4033613,10.205042 C15.6672269,10.205042 16.6991597,11.2403361 16.6991597,12.5109244 L16.6991597,15.9260504 C16.6991597,17.1966387 15.6705882,18.2285714 14.4033613,18.2285714 L9.02521008,18.2285714 L9.02521008,18.2285714 Z M11.9596639,3.43193277 C11.9596639,3.6605042 12.1310924,3.8487395 12.3394958,3.8487395 C12.5478992,3.8487395 12.7193277,3.6605042 12.7193277,3.43193277 C12.7193277,3.20336134 12.5478992,3.01176471 12.3394958,3.01176471 C12.1310924,3.01176471 11.9596639,3.2 11.9596639,3.43193277 Z M13.6773109,3.43193277 C13.6773109,4.19159664 13.0756303,4.81344538 12.3394958,4.81344538 C11.6,4.81344538 11.0016807,4.19159664 11.0016807,3.43193277 C11.0016807,2.66890756 11.6033613,2.0504066 12.3394958,2.0504066 C13.0789916,2.04705882 13.6773109,2.66890756 13.6773109,3.43193277 Z M16.887395,2.50756303 C16.702521,2.50756303 16.5176471,2.43697479 16.3798319,2.29579832 C16.097479,2.01344538 16.097479,1.55630252 16.3798319,1.27394958 L17.2336134,0.413445378 C17.5159664,0.131092437 17.9697479,0.131092437 18.2521008,0.413445378 C18.5344538,0.695798319 18.5344538,1.15294118 18.2521008,1.43529412 L17.3983193,2.29243697 C17.2571429,2.43697479 17.0722689,2.50756303 16.887395,2.50756303 Z M17.102521,3.23361345 C17.102521,2.83361345 17.4252101,2.51092437 17.8218487,2.51092437 L19.3882353,2.51092437 C19.7848739,2.51092437 20.107563,2.83361345 20.107563,3.23361345 C20.107563,3.63361345 19.7848739,3.95630252 19.3882353,3.95630252 L17.8218487,3.95630252 C17.4218487,3.95294118 17.102521,3.6302521 17.102521,3.23361345 L17.102521,3.23361345 Z M16.4403361,4.17478992 C16.7226891,3.89243697 17.1764706,3.89243697 17.4588235,4.17478992 L18.3630252,5.08235294 C18.6453782,5.36470588 18.6453782,5.82184874 18.3630252,6.10420168 C18.2218487,6.24537815 18.0403361,6.31596639 17.8554622,6.31596639 C17.6705882,6.31596639 17.4857143,6.24537815 17.3478992,6.10420168 L16.4436975,5.19663866 C16.1613445,4.91428571 16.1613445,4.45714286 16.4403361,4.17478992 L16.4403361,4.17478992 Z M10.6857143,13.6840336 C10.4201681,13.6840336 10.205042,13.4689076 10.205042,13.2033613 C10.205042,12.9378151 10.4201681,12.7226891 10.6857143,12.7226891 L12.692437,12.7226891 C12.9579832,12.7226891 13.1731092,12.9378151 13.1731092,13.2033613 C13.1731092,13.4689076 12.9579832,13.6840336 12.692437,13.6840336 L10.6857143,13.6840336 Z M9.92941176,15.5932773 C9.66386555,15.5932773 9.4487395,15.3781513 9.4487395,15.112605 C9.4487395,14.8470588 9.66386555,14.6319328 9.92941176,14.6319328 L13.4420168,14.6319328 C13.707563,14.6319328 13.9226891,14.8470588 13.9226891,15.112605 C13.9226891,15.3781513 13.707563,15.5932773 13.4420168,15.5932773 L9.92941176,15.5932773 Z" id="Perfume-_2Regular"></path>
        </g>
    </g>
</svg>

<svg width="24" height="24" viewBox="0 0 24 24" xmlns="http://www.w3.org/2000/svg"><path d="M17.207 22.178a.263.263 0 00.262-.265.263.263 0 00-.262-.266H6.555a.268.268 0 00-.266.266c0 .144.118.265.266.265h10.652zM3.459 14.111c0 2.746 1.18 4.85 3.412 6.094h10.084c2.164-1.217 3.314-3.318 3.314-6.094 0-4.982-4-6.521-5.724-6.955h-.004a11.227 11.227 0 00-2.682-.322c-1.002 0-2.024.14-2.995.427l-.03.006c-2.928.878-5.375 3.096-5.375 6.844zM9.3 2.528v3.136a12.183 12.183 0 012.558-.272c.733 0 1.449.084 2.151.205v-3.07a1.08 1.08 0 00-1.079-1.082h-2.555a1.08 1.08 0 00-1.075 1.083zM21.704 14.11c0 2.931-1.086 5.25-3.15 6.776.22.286.354.642.354 1.029 0 .941-.763 1.708-1.701 1.708H6.555a1.71 1.71 0 01-1.705-1.708c0-.4.145-.763.374-1.055-2.078-1.547-3.207-3.9-3.207-6.75 0-4.29 2.618-6.898 5.845-8.04V2.528A2.524 2.524 0 0110.376 0h2.555a2.522 2.522 0 012.514 2.528v3.388c3.933 1.193 6.26 4.215 6.26 8.195zm-13.536-1.6v3.415c0 .474.383.86.857.86h5.378a.86.86 0 00.858-.86v-3.415a.86.86 0 00-.858-.86H9.025a.86.86 0 00-.857.86zm.857 5.718a2.3 2.3 0 01-2.296-2.303v-3.415a2.303 2.303 0 012.296-2.306h5.378a2.305 2.305 0 012.296 2.306v3.415a2.3 2.3 0 01-2.296 2.303H9.025zM11.96 3.432c0 .229.171.417.38.417.208 0 .38-.188.38-.417 0-.229-.172-.42-.38-.42-.209 0-.38.188-.38.42zm1.717 0c0 .76-.601 1.381-1.338 1.381-.739 0-1.337-.621-1.337-1.381 0-.763.601-1.382 1.337-1.382.74-.003 1.338.619 1.338 1.382zm3.21-.924a.722.722 0 01-.508-1.234l.855-.86a.722.722 0 011.018 1.022l-.854.856a.71.71 0 01-.51.216zm.216.726c0-.4.322-.723.719-.723h1.566a.72.72 0 01.72.723.72.72 0 01-.72.722h-1.566a.723.723 0 01-.72-.722zm-.663.94a.718.718 0 011.019 0l.904.908a.722.722 0 01-.508 1.234.707.707 0 01-.507-.212l-.904-.907a.725.725 0 01-.004-1.022zm-5.754 9.51a.48.48 0 110-.961h2.006a.48.48 0 110 .961h-2.006zm-.757 1.91a.48.48 0 110-.962h3.513a.48.48 0 110 .961H9.929z" fill="#5CB615" fill-rule="nonzero"/></svg>
